X:1
T:Title
%%score { 1 | 2 }
L:1/8
M:4/4
K:D
V:1 treble nm="Grand Piano"
V:2 treble 
V:1
 z4 z2[Q:1/4=86] DD | DBB^A B2 =AG | E[EG][DF]E D2 DD | GGGG GG[GA][GB] | [FA]6 DD | %5
[M:3/4] DB B^A B2 |[M:1/4] Bd |[M:4/4] [Ed][E=c][EB][Ec] [EG]2 [EG][^DA] | %8
 [DB][Gd][Gd][GB] [EG]2 [FA]2 |[M:3/4] G6 |[M:1/4] DG |[M:4/4] B>^A B2- BdB=A | %12
 [EG]>[=CE] [EG]4 [DF]E | DGGG GG[GA][GB] | [FA]6 DD |[M:3/4] DB B^A B2 |[M:1/4] Bd | %17
[M:4/4] [Ed][E=c][EB][Ec] [EG]2 [EG][^DA] | [DB][Gd][Gd][DGB] [CEG]2 [=CFA]2 | %19
[M:7/4] [B,G]6 z2 z2 z4 |] %20
V:2
 z4 z2 [G,B,][G,B,] | [G,B,][G,DG][G,DG][G,CG] [G,DG]2[K:bass] [G,=CD][G,B,D] | %2
 [=C,G,=C][C,C][C,C][C,G,C] [G,B,]2 [G,B,][G,B,] | %3
 [G,B,D][G,B,D][G,B,D][G,B,D] [E,A,C][E,A,C][E,C][E,C] | [D,D]6 [D,=C][D,C] | %5
[M:3/4] [G,B,][K:treble][G,DG] [G,DG][G,CG] [G,DG]2 |[M:1/4] [G,DG][G,B,=F] | %7
[M:4/4][K:bass] [=C,G,][C,G,][C,G,][C,G,] [C,=C]2 [C,C][C,C] | %8
 [D,G,][D,B,][D,B,][D,D] [A,C]2 [D,=C]2 |[M:3/4] [G,B,]6 |[M:1/4] [G,B,][K:treble][G,B,D] | %11
[M:4/4] [G,DG]>[G,CG] [G,DG]2- [G,DG][G,B,G][G,DG][K:bass][G,B,D] | %12
 [=C,=C]>[C,G,] [C,C]4 [C,G,][C,G,C] | [G,B,][G,B,D][G,B,D][G,B,D] [E,A,C][E,A,C][E,C][E,C] | %14
 [D,D]6 [D,=C][D,C] |[M:3/4] [G,B,][K:treble][G,DG] [G,DG][G,CG] [G,DG]2 |[M:1/4] [G,DG][G,B,=F] | %17
[M:4/4][K:bass] [=C,G,][C,G,][C,G,][C,G,] [C,=C]2 [C,C][C,C] | [D,G,][D,B,][D,B,]D, A,2 D,2 | %19
[M:7/4] G,6 z2 z2 z4 |] %20

